!!!COM: Music21
!!!OTL: hornpipe_Walshs
!!!OMV: hornpipe_Walshs
**kern
*clefG2
*k[f#c#g#]
*A:
*M4/4
=1
8.cc#L
16bJk
=||
12aL
12b
12cc#J
8.eL
16f#Jk
8.aL
16bJk
4cc#
=
12ddL
12ee
12ff#J
8.bL
16cc#Jk
8.ddL
16eeJk
4ff#
=
8.ff#L
16eeJk
8.cc#L
16eeJk
8.aaL
16eeJk
8.cc#L
16aJk
=
12bL
12cc#
12ddJ
8.cc#L
16aJk
8.bL
16aJk
8.f#L
16aJk
!!linebreak:original
=
12aL
12b
12cc#J
8.eL
16f#Jk
8.aL
16bJk
4cc#
=
12ddL
12ee
12ff#J
8.bL
16cc#Jk
8.ddL
16eeJk
4ff#
=
8.ff#L
16eeJk
8.cc#L
16eeJk
8.aaL
16eeJk
8.cc#L
16aJk
=
12bL
12cc#
12ddJ
8.cc#L
16bJk
4a
8.cc#L
16bJk
!!linebreak:original
=||
12aL
12b
12cc#J
8.eL
16f#Jk
8.aL
16bJk
4cc#
=
12ddL
12ee
12ff#J
8.bL
16cc#Jk
8.ddL
16eeJk
4ff#
=
8.ff#L
16eeJk
8.cc#L
16eeJk
8.aaL
16eeJk
8.cc#L
16aJk
=
12bL
12cc#
12ddJ
8.cc#L
16aJk
8.bL
16aJk
8.f#L
16aJk
!!linebreak:original
=
12aL
12b
12cc#J
8.eL
16f#Jk
8.aL
16bJk
4cc#
=
12ddL
12ee
12ff#J
8.bL
16cc#Jk
8.ddL
16eeJk
4ff#
=
8.ff#L
16eeJk
8.cc#L
16eeJk
8.aaL
16eeJk
8.cc#L
16aJk
=
12bL
12cc#
12ddJ
8.cc#L
16bJk
4a
12eeL
12ff#
12gg#J
!!linebreak:original
=||
8.aaL
16eeJk
8.cc#L
16eeJk
8.ff#L
16eeJk
8.cc#L
16eeJk
=
8.aaL
16eeJk
8.cc#L
16eeJk
8.ff#L
16eeJk
8.cc#L
16eeJk
=
8.aL
16eeJk
8.cc#L
16eeJk
8.aaL
16eeJk
8.cc#L
16aJk
=
12bL
12cc#
12ddJ
8.cc#L
16aJk
8.bL
16aJk
8.f#L
16bJk
!!linebreak:original
=
12aL
12b
12cc#J
8.eL
16f#Jk
8.aL
16bJk
4cc#
=
12ddL
12ee
12ff#J
8.bL
16cc#Jk
8.ddL
16eeJk
4ff#
=
8.ff#L
16eeJk
8.cc#L
16eeJk
8.aaL
16eeJk
8.cc#L
16aJk
=
12bL
12cc#
12ddJ
8.cc#L
16bJk
4a
12eeL
12ff#
12gg#J
!!linebreak:original
=||
8.aaL
16eeJk
8.cc#L
16eeJk
8.ff#L
16eeJk
8.cc#L
16eeJk
=
8.aaL
16eeJk
8.cc#L
16eeJk
8.ff#L
16eeJk
8.cc#L
16eeJk
=
8.aL
16eeJk
8.cc#L
16eeJk
8.aaL
16eeJk
8.cc#L
16aJk
=
12bL
12cc#
12ddJ
8.cc#L
16aJk
8.bL
16aJk
8.f#L
16bJk
!!linebreak:original
=
12aL
12b
12cc#J
8.eL
16f#Jk
8.aL
16bJk
4cc#
=
12ddL
12ee
12ff#J
8.bL
16cc#Jk
8.ddL
16eeJk
4ff#
=
8.ff#L
16eeJk
8.cc#L
16eeJk
8.aaL
16eeJk
8.cc#L
16aJk
=
12bL
12cc#
12ddJ
8.cc#L
16bJk
4a
8.cc#L
16bJk
=||
*-
